X: 17375
T: High Road To Cork, The
R: slip jig
M: 9/8
K: Adorian
|:e2 A A2 g gfg|e2 A A2 g Bcd|e2 A A2 g gfg|d2 G G2 A Bcd:|
|:e2 g f2 a gfg|e2 A A2 c Bcd|e2 g f2 a gfe|d2 B G2 A Bcd:|

